svg/500/sharp/format_ink_highlighter.svg

<svg xmlns="http://www.w3.org/2000/svg" width="48" height="48" viewBox="0 -960 960 960"><path d="M80 0v-126.5h800V0H80Zm504.348-479.739L527.065-536.5l-56.761-57.283-173.869 173.87L410.718-305.87l173.63-173.869ZM519.283-643l56.522 57.761 57.76 56.521 175.718-175.717-114.044-114.282L519.283-643ZM141.065-232.5l122.153-121.913-40.631-40.631v-47.978l223.609-223.609L657.435-455.63 434.587-232.783h-48.978l-44.391-44.63-45.153 44.913h-155Zm305.131-434.131L698-918.435l210.761 211L657.435-455.63 446.196-666.631Z"/></svg>

<svg xmlns="http://www.w3.org/2000/svg" width="48" height="48" viewBox="0 -960 960 960"><path d="M80 0v-126.5h800V0H80Zm504.35-479.74-57.28-56.76-56.77-57.28-173.86 173.87 114.28 114.04 173.63-173.87ZM519.28-643l56.52 57.76 57.77 56.52 175.71-175.71-114.04-114.29L519.28-643ZM141.07-232.5l122.15-121.91-40.63-40.63v-47.98L446.2-666.63l211.24 211-222.85 222.85h-48.98l-44.39-44.63-45.15 44.91h-155ZM446.2-666.63 698-918.44l210.76 211.01-251.32 251.8-211.24-211Z"/></svg>
